icon/gr/globe.svg

<svg xmlns="http://www.w3.org/2000/svg" width="24" height="24"><path fill="none" stroke="#000" stroke-width="2" d="M2 8s3.5 1 5 2 .564 2.42 1 3c.436.58 2-1 2 2s3 1 3 4 2.5 2.5 3 1 2.233-3.134 2-5c-.233-1.866-1-3-3-3s-3.5-.5-4-2 3-2 2-5 0-4 0-4m10 11c0 6.075-4.925 11-11 11S1 18.075 1 12 5.925 1 12 1s11 4.925 11 11Z"/></svg>

<svg xmlns="http://www.w3.org/2000/svg" viewBox="0 0 24 24" height="1em" width="1em">
  <path fill="none" stroke="#000" stroke-width="2" d="M2,8 C2,8 5.5,9 7,10 C8.5,11 7.56437103,12.4191614 8,13 C8.43562897,13.5808386 10,12 10,15 C10,18 13,16 13,19 C13,22 15.5,21.5 16,20 C16.5,18.5 18.2333023,16.8664183 18,15 C17.7666977,13.1335817 17,12 15,12 C13,12 11.5,11.5 11,10 C10.5,8.5 14,8 13,5 C12,2 13,1 13,1 M23,12 C23,18.075 18.075,23 12,23 C5.925,23 1,18.075 1,12 C1,5.925 5.925,1 12,1 C18.075,1 23,5.925 23,12 L23,12 Z"/>
</svg>
